src/assets/navIcon/work.svg

<svg width="20" height="19" fill="none" xmlns="http://www.w3.org/2000/svg"><path d="M0 19V4h6V0h8v4h6v15H0ZM8 4h4V2H8v2ZM2 17h16V6H2v11Z" fill="#F8F8F8"/></svg>

<svg width="20" height="19" viewBox="0 0 20 19" fill="none" xmlns="http://www.w3.org/2000/svg">
<path d="M0 19V4H6V0H14V4H20V19H0ZM8 4H12V2H8V4ZM2 17H18V6H2V17Z" fill="#F8F8F8"/>
</svg>
